X:111
T:Meet The Flintstones
C:William Hanna, Joseph Barbera, Hoyt Curtain
N:TablEdited by Kim Davis
L:1/8
Q:1/4=290
M:4/4
K:F
z8 |: c4 F2 z2 | "Bb7"z2 f4 d2 | "Am7"c4 F4 | "D7b9"z2 c4 B2 | "Gm7"A2 A2 B2 c2 | 
"C11"F4 "C7b9"G4 |1 A8 | "G7b13"z8 :|2 F8 | "F"z8 |] "A7"e4 A4 | z2 f4 e2 | "D7"e2 d2 d2 e2 | 
d8 | "G7"d4 G4 | z2 e4 d2 | "C7"d2 c2 c2 d2 | c8 | "Fmaj7"c4 F4 | "Gm7"z2 f4 d2 | 
"Am7"c4 F4 | "Bbm7"z2 c4 B2 | "Am7"A2 A2 "Ab13"B2 c2 | "Gm7"f4 "Gb7b9"g4 | "F6"f8 | 
"Gm7"z8 | z2 "Bbmaj7"c4 "Eb7"B2 | "Fmaj7"A2 A2 "Ab13"B2 c2 | "Gm7"F4 "Gb7b9"G4 | 
"Fmaj7"zA z2 "Ab13"B2 c2 | "Gm7"F4 "Gb7b9"G4 | "Fmaj7"z2 A2 "Ab13"B2 c2 | "Gm7"f4 "C7b9"g4 | 
"F6"f8 | 


